X:9007
T:I Wonder as I Wander
R:Jig
C:Trad.
O:USA
Z:Paul Hardy's Xmas Tunebook 2019 (see www.paulhardy.net). Creative Commons cc by-nc-sa licenced.
M:6/8
L:1/8
Q:3/8=50
K:Bm
F|"Bm"BFB/2B/2 dcB|"D"AFD "A7"E2E|"Bm"BFB dcB|"F#m"dc3/2B/2 "Bm"B2F|
"Bm"BFB dcB|"G"dcB "D"A2F|"Bm"BFB/2B/2 "D"dHfz/2B/2|"Bm"dBF B2|]
W:I wonder as I wander out under the sky,
W:How Jesus the Savior did come for to die.
W:For poor ordinary people like you and like I,
W:I wonder as I wander out under the sky.
% --------------------------------- J ---------------------------------------

